src/symbolic/status/weather-few-clouds-symbolic.svg

<svg xmlns="http://www.w3.org/2000/svg" width="16" height="16"><path d="M11 9c-1.31 0-2.4.86-2.81 2.03C6.96 11.19 6 12.23 6 13.5A2.5 2.5 0 0 0 8.5 16h5a2.5 2.5 0 0 0 2.5-2.5c0-1.27-.96-2.31-2.19-2.47C13.41 9.86 12.31 9 11 9z" fill="#444"/><path d="M7 0l-.5 1.03c.16-.01.33-.03.5-.03h.5zm0 2C4.24 2 2 4.24 2 7c0 2.25 1.51 4.12 3.56 4.75.22-.32.49-.6.81-.84l.1-.07c.07-.05.15-.1.23-.14.26-.16.54-.3.83-.39.07-.14.15-.28.23-.41.47-.75 1.15-1.34 1.97-1.66h.01c.16-.07.34-.12.51-.15.04-.01.09-.03.13-.03.2-.04.41-.06.62-.06.15 0 .3.01.44.04.15.01.3.04.44.08.08-.36.12-.73.12-1.12 0-2.76-2.24-5-5-5zm-4.94.06l.35 1.07c.22-.26.46-.5.72-.72zm9.88 0l-1.1.38h-.06c.14.11.28.22.41.34.13.12.26.24.37.38zM1 6.5L0 7l1.03.5C1.02 7.33 1 7.17 1 7v-.16l.03-.34zm11.97 0c.01.17.03.33.03.5v.16l-.03.34H13l1-.5zM2.44 10.84l-.38 1.1 1.1-.38h.06c-.14-.11-.28-.22-.41-.34-.13-.12-.26-.24-.37-.38z" fill="#444"/></svg>

<svg xmlns="http://www.w3.org/2000/svg" width="16" height="16" version="1.1">
 <path style="fill:#444444" d="M 11,9 C 9.69,9 8.6,9.86 8.19,11.03 6.96,11.19 6,12.23 6,13.5 6,14.88 7.12,16 8.5,16 H 13.5 C 14.88,16 16,14.88 16,13.5 16,12.23 15.04,11.19 13.81,11.03 13.41,9.86 12.31,9 11,9 Z"/>
 <path style="fill:#444444" d="M 7,0 6.5,1.03 C 6.66,1.02 6.83,1 7,1 H 7.5 Z M 7,2 C 4.24,2 2,4.24 2,7 2,9.25 3.51,11.12 5.56,11.75 5.78,11.43 6.05,11.15 6.37,10.91 6.4,10.89 6.44,10.86 6.47,10.84 6.54,10.79 6.62,10.74 6.7,10.7 6.96,10.54 7.24,10.4 7.53,10.31 7.6,10.17 7.68,10.03 7.76,9.9 8.23,9.15 8.91,8.56 9.73,8.24 9.73,8.24 9.73,8.24 9.74,8.24 9.9,8.17 10.08,8.12 10.25,8.09 10.29,8.08 10.34,8.06 10.38,8.06 10.58,8.02 10.79,8 11,8 11.15,8 11.3,8.01 11.44,8.04 11.59,8.05 11.74,8.08 11.88,8.12 11.96,7.76 12,7.39 12,7 12,4.24 9.76,2 7,2 Z M 2.06,2.06 2.41,3.13 C 2.63,2.87 2.87,2.63 3.13,2.41 Z M 11.94,2.06 10.84,2.44 H 10.78 C 10.92,2.55 11.06,2.66 11.19,2.78 11.32,2.9 11.45,3.02 11.56,3.16 Z M 1,6.5 0,7 1.03,7.5 C 1.02,7.33 1,7.17 1,7 1,6.97 1,6.92 1,6.84 1.01,6.73 1.02,6.61 1.03,6.5 Z M 12.97,6.5 C 12.98,6.67 13,6.83 13,7 13,7.03 13,7.08 13,7.16 12.99,7.27 12.98,7.39 12.97,7.5 H 13 L 14,7 Z M 2.44,10.84 2.06,11.94 3.16,11.56 H 3.22 C 3.08,11.45 2.94,11.34 2.81,11.22 2.68,11.1 2.55,10.98 2.44,10.84 Z"/>
</svg>
